packages/ffe-icons/icons/filled/md/flip_camera_android.svg

<svg xmlns="http://www.w3.org/2000/svg" height="24" viewBox="0 -960 960 960" width="24"><path d="M480-90q-124.154 0-223.961-70.501Q156.231-231 114.385-345.539q-3.846-11.922 1.462-22.422 5.307-10.5 17.461-14.346 12.153-3.846 23.148 2.917 10.994 6.763 15.543 18.698 36.77 94.846 120.624 152.77Q376.477-149.999 480-149.999q93.308 0 171.539-49.232 78.231-49.231 123.693-130.77H680q-12.75 0-21.375-8.628-8.624-8.629-8.624-21.384 0-12.756 8.624-21.371 8.625-8.615 21.375-8.615h153.846q15.365 0 25.759 10.394t10.394 25.759V-200q0 12.75-8.628 21.374-8.629 8.625-21.384 8.625-12.756 0-21.371-8.625-8.615-8.624-8.615-21.374v-73.079q-55.846 84.077-142.347 133.578-86.5 49.5-187.654 49.5Zm0-720.001q-93.308 0-171.539 49.232-78.231 49.231-123.693 130.77H280q12.75 0 21.374 8.628 8.625 8.629 8.625 21.384 0 12.756-8.625 21.371-8.624 8.615-21.374 8.615H126.154q-15.365 0-25.759-10.394t-10.394-25.759V-760q0-12.75 8.628-21.375 8.629-8.624 21.384-8.624 12.756 0 21.371 8.624 8.615 8.625 8.615 21.375v73.079q55.846-84.077 142.347-133.578 86.5-49.5 187.654-49.5 124.154 0 224.153 70.5 100 70.499 141.846 185.038 3.846 11.922-1.653 22.422-5.5 10.5-17.654 14.346-12.153 3.846-23.148-2.917-10.994-6.763-15.543-18.698-36.77-94.846-120.624-152.77Q583.523-810.001 480-810.001Zm0 430q-41.922 0-70.961-29.038-29.038-29.039-29.038-70.961t29.038-70.961q29.039-29.038 70.961-29.038t70.961 29.038q29.038 29.039 29.038 70.961t-29.038 70.961Q521.922-380.001 480-380.001Z"/></svg>

<svg xmlns="http://www.w3.org/2000/svg" height="24" viewBox="0 -960 960 960" width="24"><path d="M480-90q-124.15 0-223.96-70.5T114.39-345.54q-3.85-11.92 1.46-22.42 5.3-10.5 17.46-14.35 12.15-3.84 23.15 2.92 10.99 6.76 15.54 18.7 36.77 94.84 120.62 152.77Q376.48-150 480-150q93.31 0 171.54-49.23Q729.77-248.46 775.23-330H680q-12.75 0-21.37-8.63-8.63-8.63-8.63-21.38 0-12.76 8.63-21.37Q667.25-390 680-390h153.85q15.36 0 25.76 10.39Q870-369.21 870-353.85V-200q0 12.75-8.63 21.37-8.63 8.63-21.38 8.63-12.76 0-21.37-8.63Q810-187.25 810-200v-73.08Q754.15-189 667.65-139.5 581.15-90 480-90Zm0-720q-93.31 0-171.54 49.23Q230.23-711.54 184.77-630H280q12.75 0 21.37 8.63 8.63 8.63 8.63 21.38 0 12.76-8.63 21.37Q292.75-570 280-570H126.15q-15.36 0-25.76-10.39Q90-590.79 90-606.15V-760q0-12.75 8.63-21.37 8.63-8.63 21.38-8.63 12.76 0 21.37 8.63Q150-772.75 150-760v73.08Q205.85-771 292.35-820.5 378.85-870 480-870q124.15 0 224.15 70.5T846-614.46q3.85 11.92-1.65 22.42-5.5 10.5-17.66 14.35-12.15 3.84-23.15-2.92-10.99-6.76-15.54-18.7-36.77-94.84-120.62-152.77Q583.52-810 480-810Zm0 430q-41.92 0-70.96-29.04Q380-438.08 380-480q0-41.92 29.04-70.96Q438.08-580 480-580q41.92 0 70.96 29.04Q580-521.92 580-480q0 41.92-29.04 70.96Q521.92-380 480-380Z"/></svg>
